svgs/solid/blinds-open.svg

<svg xmlns="http://www.w3.org/2000/svg" viewBox="0 0 512 512"><!--! Font Awesome Pro 6.0.0-alpha3 by @fontawesome - https://fontawesome.com License - https://fontawesome.com/license (Commercial License) --><path d="M16 464L0 512h512l-16-48H16zM64 208.2V192H16L0 240h39.12C44.62 227.5 53.12 216.5 64 208.2zM175.6 320C160.6 340.1 137.1 352 112 352s-48.62-11.88-63.62-32H16L0 368h512L496 320H175.6zM160 192v16.25C170.9 216.5 179.4 227.5 184.9 240H512L496 192H160zM512 48v-32C512 7.125 504.9 0 496 0h-480C7.125 0 0 7.125 0 16v32C0 56.88 7.125 64 16 64L0 112h64V64h32v163C73.1 234.8 60.75 257.2 64.75 280.2c3.875 23.13 23.87 40 47.25 40s43.38-16.87 47.25-40C163.2 257.2 149.1 234.8 128 227V64h32v48h352L496 64C504.9 64 512 56.88 512 48z"/></svg>

<svg xmlns="http://www.w3.org/2000/svg" viewBox="0 0 512 512"><path d="M16,464,0,512H512l-16-48ZM64,208.21V192H16L0,240H39.16A80.21,80.21,0,0,1,64,208.21ZM175.59,320a79.18,79.18,0,0,1-127.18,0H16L0,368H512l-16-48ZM160,192v16.21A80.12,80.12,0,0,1,184.84,240H512l-16-48ZM512,48V16A16,16,0,0,0,496,0H16A16,16,0,0,0,0,16V48A16,16,0,0,0,16,64L0,112H64V64H96V226.94a48,48,0,1,0,32,0V64h32v48H512L496,64A16,16,0,0,0,512,48Z"/></svg>
